{
  "type": "map",
  "version": "1.10",
  "tiledversion": "1.11.2",
  "orientation": "orthogonal",
  "renderorder": "right-down",
  "infinite": false,
  "width": 60,
  "height": 34,
  "tilewidth": 32,
  "tileheight": 32,
  "nextlayerid": 3,
  "nextobjectid": 20,
  "properties": [
    {
      "name": "worldTileSize",
      "type": "float",
      "value": 2.5
    },
    {
      "name": "originX",
      "type": "float",
      "value": -75.0
    },
    {
      "name": "originY",
      "type": "float",
      "value": -42.5
    }
  ],
  "tilesets": [
    {
      "firstgid": 1,
      "source": "terrain.tsj"
    }
  ],
  "layers": [
    {
      "id": 1,
      "name": "Terrain",
      "type": "tilelayer",
      "x": 0,
      "y": 0,
      "width": 60,
      "height": 34,
      "opacity": 1,
      "visible": true,
      "data": [
        0,
        0,
        0,
        0,
        0,
        0,
        0,
        0,
        0,
        0,
        0,
        0,
        0,
        0,
        0,
        0,
        0,
        0,
        0,
        0,
        0,
        0,
        0,
        0,
        0,
        0,
        0,
        0,
        0,
        0,
        0,
        0,
        0,
        0,
        0,
        0,
        0,
        0,
        0,
        0,
        0,
        0,
        0,
        0,
        0,
        0,
        0,
        0,
        0,
        0,
        0,
        0,
        0,
        0,
        0,
        0,
        0,
        0,
        0,
        0,
        0,
        0,
        0,
        0,
        0,
        0,
        0,
        0,
        0,
        0,
        0,
        0,
        0,
        0,
        0,
        0,
        0,
        0,
        0,
        0,
        0,
        0,
        0,
        0,
        0,
        0,
        0,
        0,
        0,
        0,
        0,
        0,
        0,
        0,
        0,
        0,
        0,
        0,
        0,
        0,
        0,
        0,
        0,
        0,
        0,
        0,
        0,
        0,
        0,
        0,
        0,
        0,
        0,
        0,
        0,
        0,
        0,
        0,
        0,
        0,
        0,
        0,
        0,
        0,
        0,
        0,
        0,
        0,
        0,
        0,
        0,
        0,
        0,
        0,
        0,
        0,
        0,
        0,
        0,
        0,
        0,
        0,
        0,
        0,
        0,
        0,
        0,
        0,
        0,
        0,
        0,
        0,
        0,
        0,
        0,
        0,
        0,
        0,
        0,
        0,
        0,
        0,
        0,
        0,
        0,
        0,
        0,
        0,
        0,
        0,
        0,
        0,
        0,
        0,
        0,
        0,
        0,
        0,
        0,
        0,
        0,
        0,
        0,
        0,
        0,
        0,
        0,
        0,
        0,
        0,
        0,
        0,
        0,
        0,
        0,
        0,
        0,
        0,
        0,
        0,
        0,
        0,
        0,
        0,
        0,
        0,
        0,
        0,
        0,
        0,
        0,
        0,
        0,
        0,
        0,
        0,
        0,
        0,
        0,
        0,
        0,
        0,
        0,
        0,
        0,
        0,
        0,
        0,
        0,
        0,
        0,
        0,
        0,
        0,
        0,
        0,
        0,
        0,
        0,
        0,
        0,
        0,
        0,
        0,
        0,
        0,
        0,
        0,
        0,
        0,
        0,
        0,
        0,
        0,
        0,
        0,
        0,
        0,
        0,
        0,
        0,
        0,
        0,
        0,
        0,
        0,
        0,
        0,
        0,
        0,
        0,
        0,
        0,
        0,
        0,
        0,
        0,
        0,
        0,
        0,
        0,
        0,
        0,
        0,
        0,
        0,
        0,
        0,
        0,
        0,
        0,
        0,
        0,
        0,
        0,
        0,
        0,
        0,
        0,
        0,
        0,
        0,
        0,
        0,
        0,
        0,
        0,
        0,
        0,
        0,
        0,
        0,
        0,
        0,
        0,
        0,
        0,
        0,
        0,
        0,
        0,
        0,
        0,
        0,
        0,
        0,
        0,
        0,
        0,
        0,
        0,
        0,
        0,
        0,
        0,
        0,
        0,
        0,
        0,
        0,
        0,
        0,
        0,
        0,
        0,
        0,
        0,
        0,
        0,
        0,
        0,
        0,
        0,
        0,
        0,
        0,
        0,
        0,
        0,
        0,
        0,
        0,
        0,
        0,
        0,
        0,
        0,
        0,
        0,
        0,
        0,
        0,
        0,
        0,
        0,
        0,
        0,
        0,
        0,
        0,
        0,
        0,
        0,
        0,
        0,
        0,
        0,
        0,
        0,
        0,
        0,
        0,
        0,
        0,
        0,
        0,
        0,
        0,
        0,
        0,
        0,
        0,
        0,
        0,
        0,
        0,
        0,
        0,
        0,
        0,
        0,
        0,
        0,
        0,
        0,
        0,
        0,
        0,
        0,
        0,
        0,
        0,
        0,
        0,
        0,
        0,
        0,
        0,
        0,
        0,
        0,
        0,
        0,
        0,
        0,
        0,
        0,
        0,
        0,
        0,
        0,
        0,
        0,
        0,
        0,
        0,
        0,
        0,
        0,
        0,
        0,
        0,
        0,
        0,
        0,
        0,
        0,
        0,
        0,
        0,
        0,
        0,
        0,
        0,
        0,
        0,
        0,
        0,
        0,
        0,
        0,
        0,
        0,
        0,
        0,
        0,
        0,
        0,
        0,
        0,
        0,
        0,
        0,
        0,
        0,
        0,
        0,
        0,
        0,
        0,
        0,
        0,
        0,
        0,
        0,
        0,
        0,
        0,
        0,
        0,
        0,
        0,
        0,
        0,
        0,
        0,
        0,
        0,
        0,
        0,
        0,
        0,
        0,
        0,
        0,
        0,
        0,
        0,
        0,
        0,
        0,
        0,
        0,
        0,
        0,
        0,
        0,
        0,
        0,
        0,
        0,
        0,
        0,
        0,
        0,
        0,
        0,
        0,
        0,
        0,
        0,
        0,
        0,
        0,
        0,
        0,
        0,
        0,
        0,
        0,
        0,
        0,
        0,
        0,
        0,
        0,
        0,
        0,
        0,
        0,
        0,
        0,
        0,
        0,
        0,
        0,
        0,
        0,
        0,
        0,
        0,
        0,
        0,
        0,
        0,
        0,
        0,
        0,
        0,
        0,
        0,
        0,
        0,
        0,
        0,
        0,
        0,
        0,
        0,
        0,
        0,
        0,
        0,
        0,
        0,
        0,
        0,
        0,
        0,
        0,
        0,
        0,
        0,
        0,
        0,
        0,
        0,
        0,
        0,
        0,
        0,
        0,
        0,
        0,
        0,
        0,
        0,
        0,
        0,
        0,
        0,
        0,
        0,
        0,
        0,
        0,
        0,
        0,
        0,
        0,
        0,
        0,
        0,
        0,
        0,
        0,
        0,
        0,
        0,
        0,
        0,
        0,
        0,
        0,
        0,
        0,
        0,
        0,
        0,
        0,
        0,
        0,
        0,
        0,
        0,
        0,
        0,
        0,
        0,
        0,
        0,
        0,
        0,
        0,
        0,
        0,
        0,
        0,
        0,
        0,
        0,
        0,
        0,
        0,
        0,
        0,
        0,
        0,
        0,
        0,
        0,
        0,
        0,
        0,
        0,
        0,
        0,
        0,
        0,
        0,
        0,
        0,
        0,
        0,
        0,
        0,
        0,
        0,
        0,
        0,
        0,
        0,
        0,
        0,
        0,
        0,
        0,
        0,
        0,
        0,
        0,
        0,
        0,
        0,
        0,
        0,
        0,
        0,
        0,
        0,
        0,
        0,
        0,
        0,
        0,
        0,
        0,
        0,
        0,
        0,
        0,
        0,
        0,
        0,
        0,
        0,
        0,
        0,
        0,
        0,
        0,
        0,
        0,
        0,
        0,
        0,
        0,
        0,
        0,
        0,
        0,
        0,
        0,
        0,
        0,
        0,
        0,
        0,
        0,
        0,
        0,
        0,
        0,
        0,
        0,
        0,
        0,
        0,
        0,
        0,
        0,
        0,
        0,
        0,
        0,
        0,
        0,
        0,
        0,
        0,
        0,
        0,
        0,
        0,
        0,
        0,
        0,
        0,
        0,
        0,
        0,
        0,
        0,
        0,
        0,
        0,
        0,
        0,
        0,
        0,
        0,
        0,
        0,
        0,
        0,
        0,
        0,
        0,
        0,
        0,
        0,
        0,
        0,
        0,
        0,
        0,
        0,
        0,
        0,
        0,
        0,
        0,
        0,
        0,
        0,
        0,
        0,
        0,
        0,
        0,
        0,
        0,
        0,
        0,
        0,
        0,
        0,
        0,
        0,
        0,
        0,
        0,
        0,
        0,
        0,
        0,
        0,
        0,
        0,
        0,
        0,
        0,
        0,
        0,
        0,
        0,
        0,
        0,
        0,
        0,
        0,
        0,
        0,
        0,
        0,
        0,
        0,
        0,
        0,
        0,
        0,
        0,
        0,
        0,
        0,
        0,
        0,
        0,
        0,
        0,
        0,
        0,
        0,
        0,
        0,
        0,
        0,
        0,
        0,
        0,
        0,
        0,
        0,
        0,
        0,
        0,
        0,
        0,
        0,
        0,
        0,
        0,
        0,
        0,
        0,
        0,
        0,
        0,
        0,
        0,
        0,
        0,
        0,
        0,
        0,
        0,
        0,
        0,
        0,
        0,
        0,
        0,
        0,
        0,
        0,
        0,
        0,
        0,
        0,
        0,
        0,
        0,
        0,
        0,
        0,
        0,
        0,
        0,
        0,
        0,
        0,
        0,
        0,
        0,
        0,
        0,
        0,
        0,
        0,
        0,
        0,
        0,
        0,
        0,
        0,
        0,
        0,
        0,
        0,
        0,
        0,
        0,
        0,
        0,
        0,
        0,
        0,
        0,
        0,
        0,
        0,
        0,
        0,
        0,
        0,
        0,
        0,
        0,
        0,
        0,
        0,
        0,
        0,
        0,
        0,
        0,
        0,
        0,
        0,
        0,
        0,
        0,
        0,
        0,
        0,
        0,
        0,
        0,
        0,
        0,
        0,
        0,
        0,
        0,
        0,
        0,
        0,
        0,
        0,
        0,
        0,
        0,
        0,
        0,
        0,
        0,
        0,
        0,
        0,
        0,
        0,
        0,
        0,
        0,
        0,
        0,
        0,
        0,
        0,
        0,
        0,
        0,
        0,
        0,
        0,
        0,
        0,
        0,
        0,
        0,
        0,
        0,
        0,
        0,
        0,
        0,
        0,
        0,
        0,
        0,
        0,
        0,
        0,
        0,
        0,
        0,
        0,
        0,
        0,
        0,
        0,
        0,
        0,
        0,
        0,
        0,
        0,
        0,
        0,
        0,
        0,
        0,
        0,
        0,
        0,
        0,
        0,
        0,
        0,
        0,
        0,
        0,
        0,
        0,
        0,
        0,
        0,
        0,
        0,
        0,
        0,
        0,
        0,
        0,
        0,
        0,
        0,
        0,
        0,
        0,
        0,
        0,
        0,
        0,
        0,
        0,
        0,
        0,
        0,
        0,
        0,
        0,
        0,
        0,
        0,
        0,
        0,
        0,
        0,
        0,
        0,
        0,
        0,
        0,
        0,
        0,
        0,
        0,
        0,
        0,
        0,
        0,
        0,
        0,
        0,
        0,
        0,
        0,
        0,
        0,
        0,
        0,
        0,
        0,
        0,
        0,
        0,
        0,
        0,
        0,
        0,
        0,
        0,
        0,
        0,
        0,
        0,
        0,
        0,
        0,
        0,
        0,
        0,
        0,
        0,
        0,
        0,
        0,
        0,
        0,
        0,
        0,
        0,
        0,
        0,
        0,
        0,
        0,
        0,
        0,
        0,
        0,
        0,
        0,
        0,
        0,
        0,
        0,
        0,
        0,
        0,
        0,
        0,
        0,
        0,
        0,
        0,
        0,
        0,
        0,
        0,
        0,
        0,
        0,
        0,
        0,
        0,
        0,
        0,
        0,
        0,
        0,
        0,
        0,
        0,
        0,
        0,
        0,
        0,
        0,
        0,
        0,
        0,
        0,
        0,
        0,
        0,
        0,
        0,
        0,
        0,
        0,
        0,
        0,
        0,
        0,
        0,
        0,
        0,
        0,
        0,
        0,
        0,
        0,
        0,
        0,
        0,
        0,
        0,
        0,
        0,
        0,
        0,
        0,
        0,
        0,
        0,
        0,
        0,
        0,
        0,
        0,
        0,
        0,
        0,
        0,
        0,
        0,
        0,
        0,
        0,
        0,
        0,
        0,
        0,
        0,
        0,
        0,
        0,
        0,
        0,
        0,
        0,
        0,
        0,
        0,
        0,
        0,
        0,
        0,
        0,
        0,
        0,
        0,
        0,
        0,
        0,
        0,
        0,
        0,
        0,
        0,
        0,
        0,
        0,
        0,
        0,
        0,
        0,
        0,
        0,
        0,
        0,
        0,
        0,
        0,
        0,
        0,
        0,
        0,
        0,
        0,
        0,
        0,
        0,
        0,
        0,
        0,
        0,
        0,
        0,
        0,
        0,
        0,
        0,
        0,
        0,
        0,
        0,
        0,
        0,
        0,
        0,
        0,
        0,
        0,
        0,
        0,
        0,
        0,
        0,
        0,
        0,
        0,
        0,
        0,
        0,
        0,
        0,
        0,
        0,
        0,
        0,
        0,
        0,
        0,
        0,
        0,
        0,
        0,
        0,
        0,
        0,
        0,
        0,
        0,
        0,
        0,
        0,
        0,
        0,
        0,
        0,
        0,
        0,
        0,
        0,
        0,
        0,
        0,
        0,
        0,
        0,
        0,
        0,
        0,
        0,
        0,
        0,
        0,
        0,
        0,
        0,
        0,
        0,
        0,
        0,
        0,
        0,
        0,
        0,
        0,
        0,
        0,
        0,
        0,
        0,
        0,
        0,
        0,
        0,
        0,
        0,
        0,
        0,
        0,
        0,
        0,
        0,
        0,
        0,
        0,
        0,
        0,
        0,
        0,
        0,
        0,
        0,
        0,
        0,
        0,
        0,
        0,
        0,
        0,
        0,
        0,
        0,
        0,
        0,
        0,
        0,
        0,
        0,
        0,
        0,
        0,
        0,
        0,
        0,
        0,
        0,
        0,
        0,
        0,
        0,
        0,
        0,
        0,
        0,
        0,
        0,
        0,
        0,
        0,
        0,
        0,
        0,
        0,
        0,
        0,
        0,
        0,
        0,
        0,
        0,
        0,
        0,
        0,
        0,
        0,
        0,
        0,
        0,
        0,
        0,
        0,
        0,
        0,
        0,
        0,
        0,
        0,
        0,
        0,
        0,
        0,
        0,
        0,
        0,
        0,
        0,
        0,
        0,
        0,
        0,
        0,
        0,
        0,
        0,
        0,
        0,
        0,
        0,
        0,
        0,
        0,
        0,
        0,
        0,
        0,
        0,
        0,
        0,
        0,
        0,
        0,
        0,
        0,
        0,
        0,
        0,
        0,
        0,
        0,
        0,
        0,
        0,
        0,
        0,
        0,
        0,
        0,
        0,
        0,
        0,
        0,
        0,
        0,
        10,
        2,
        2,
        2,
        2,
        2,
        2,
        2,
        2,
        2,
        2,
        2,
        2,
        2,
        2,
        2,
        2,
        2,
        2,
        2,
        2,
        2,
        2,
        2,
        2,
        2,
        2,
        2,
        2,
        4,
        0,
        0,
        0,
        0,
        10,
        2,
        2,
        2,
        2,
        2,
        2,
        2,
        2,
        2,
        2,
        2,
        2,
        2,
        2,
        2,
        2,
        2,
        2,
        2,
        2,
        2,
        2,
        2,
        2,
        4,
        9,
        1,
        1,
        1,
        1,
        1,
        1,
        1,
        1,
        1,
        1,
        1,
        1,
        1,
        1,
        1,
        1,
        1,
        1,
        1,
        1,
        1,
        1,
        1,
        1,
        1,
        1,
        1,
        1,
        3,
        0,
        0,
        0,
        0,
        9,
        1,
        1,
        1,
        1,
        1,
        1,
        1,
        1,
        1,
        1,
        1,
        1,
        1,
        1,
        1,
        1,
        1,
        1,
        1,
        1,
        1,
        1,
        1,
        1,
        3,
        9,
        1,
        1,
        1,
        1,
        1,
        1,
        1,
        1,
        1,
        1,
        1,
        1,
        1,
        1,
        1,
        1,
        1,
        1,
        1,
        1,
        1,
        1,
        1,
        1,
        1,
        1,
        1,
        1,
        3,
        0,
        0,
        0,
        0,
        9,
        1,
        1,
        1,
        1,
        1,
        1,
        1,
        1,
        1,
        1,
        1,
        1,
        1,
        1,
        1,
        1,
        1,
        1,
        1,
        1,
        1,
        1,
        1,
        1,
        3,
        9,
        1,
        1,
        1,
        1,
        1,
        1,
        1,
        1,
        1,
        1,
        1,
        1,
        1,
        1,
        1,
        1,
        1,
        1,
        1,
        1,
        1,
        1,
        1,
        1,
        1,
        1,
        1,
        1,
        3,
        0,
        0,
        0,
        0,
        9,
        1,
        1,
        1,
        1,
        1,
        1,
        1,
        1,
        1,
        1,
        1,
        1,
        1,
        1,
        1,
        1,
        1,
        1,
        1,
        1,
        1,
        1,
        1,
        1,
        3,
        9,
        1,
        1,
        1,
        1,
        1,
        1,
        1,
        1,
        1,
        1,
        1,
        1,
        1,
        1,
        1,
        1,
        1,
        1,
        1,
        1,
        1,
        1,
        1,
        1,
        1,
        1,
        1,
        1,
        3,
        0,
        0,
        0,
        0,
        9,
        1,
        1,
        1,
        1,
        1,
        1,
        1,
        1,
        1,
        1,
        1,
        1,
        1,
        1,
        1,
        1,
        1,
        1,
        1,
        1,
        1,
        1,
        1,
        1,
        3,
        9,
        1,
        1,
        1,
        1,
        1,
        1,
        1,
        1,
        1,
        1,
        1,
        1,
        1,
        1,
        1,
        1,
        1,
        1,
        1,
        1,
        1,
        1,
        1,
        1,
        1,
        1,
        1,
        1,
        3,
        0,
        0,
        0,
        0,
        9,
        1,
        1,
        1,
        1,
        1,
        1,
        1,
        1,
        1,
        1,
        1,
        1,
        1,
        1,
        1,
        1,
        1,
        1,
        1,
        1,
        1,
        1,
        1,
        1,
        3,
        9,
        1,
        1,
        1,
        1,
        1,
        1,
        1,
        1,
        1,
        1,
        1,
        1,
        1,
        1,
        1,
        1,
        1,
        1,
        1,
        1,
        1,
        1,
        1,
        1,
        1,
        1,
        1,
        1,
        1,
        2,
        2,
        2,
        2,
        1,
        1,
        1,
        1,
        1,
        1,
        1,
        1,
        1,
        1,
        1,
        1,
        1,
        1,
        1,
        1,
        1,
        1,
        1,
        1,
        1,
        1,
        1,
        1,
        1,
        3,
        13,
        5,
        5,
        5,
        5,
        5,
        5,
        5,
        5,
        5,
        5,
        5,
        5,
        5,
        5,
        5,
        5,
        5,
        5,
        5,
        5,
        5,
        5,
        5,
        5,
        5,
        5,
        5,
        5,
        5,
        5,
        5,
        5,
        5,
        5,
        5,
        5,
        5,
        5,
        5,
        5,
        5,
        5,
        5,
        5,
        5,
        5,
        5,
        5,
        5,
        5,
        5,
        5,
        5,
        5,
        5,
        5,
        5,
        5,
        7
      ]
    },
    {
      "id": 2,
      "name": "Objects",
      "type": "objectgroup",
      "draworder": "topdown",
      "opacity": 1,
      "visible": true,
      "x": 0,
      "y": 0,
      "objects": [
        {
          "id": 1,
          "name": "left",
          "class": "Spawn",
          "x": 217.60000000000002,
          "y": 808.96,
          "width": 0,
          "height": 0,
          "point": true,
          "rotation": 0,
          "visible": true,
          "properties": [
            {
              "name": "uid",
              "type": "string",
              "value": "left"
            }
          ]
        },
        {
          "id": 2,
          "name": "right",
          "class": "Spawn",
          "x": 1702.4,
          "y": 808.96,
          "width": 0,
          "height": 0,
          "point": true,
          "rotation": 0,
          "visible": true,
          "properties": [
            {
              "name": "uid",
              "type": "string",
              "value": "right"
            }
          ]
        },
        {
          "id": 3,
          "name": "to_movement",
          "class": "Entity",
          "x": 57.6,
          "y": 704.0,
          "width": 64.0,
          "height": 128.0,
          "rotation": 0,
          "visible": true,
          "properties": [
            {
              "name": "uid",
              "type": "string",
              "value": "to_movement"
            },
            {
              "name": "prefab",
              "type": "string",
              "value": "door"
            },
            {
              "name": "destinationRoom",
              "type": "string",
              "value": "movement"
            },
            {
              "name": "destinationSpawn",
              "type": "string",
              "value": "right"
            }
          ]
        },
        {
          "id": 4,
          "name": "to_gallery",
          "class": "Entity",
          "x": 1798.4,
          "y": 704.0,
          "width": 64.0,
          "height": 128.0,
          "rotation": 0,
          "visible": true,
          "properties": [
            {
              "name": "uid",
              "type": "string",
              "value": "to_gallery"
            },
            {
              "name": "prefab",
              "type": "string",
              "value": "door"
            },
            {
              "name": "destinationRoom",
              "type": "string",
              "value": "gallery"
            },
            {
              "name": "destinationSpawn",
              "type": "string",
              "value": "left"
            }
          ]
        },
        {
          "id": 5,
          "name": "apple_sensor",
          "class": "Entity",
          "x": 409.6,
          "y": 742.4000000000001,
          "width": 153.60000000000002,
          "height": 89.60000000000001,
          "rotation": 0,
          "visible": true,
          "properties": [
            {
              "name": "uid",
              "type": "string",
              "value": "apple_sensor"
            },
            {
              "name": "prefab",
              "type": "string",
              "value": "trigger"
            },
            {
              "name": "event",
              "type": "string",
              "value": "drop_apple"
            }
          ]
        },
        {
          "id": 6,
          "name": "apple_01",
          "class": "Entity",
          "x": 518.4,
          "y": 524.8000000000001,
          "width": 38.400000000000006,
          "height": 38.400000000000006,
          "rotation": 0,
          "visible": true,
          "properties": [
            {
              "name": "uid",
              "type": "string",
              "value": "apple_01"
            },
            {
              "name": "prefab",
              "type": "string",
              "value": "apple"
            }
          ]
        },
        {
          "id": 7,
          "name": "sensor_mark",
          "class": "Entity",
          "x": 409.6,
          "y": 821.7600000000001,
          "width": 153.60000000000002,
          "height": 10.240000000000002,
          "rotation": 0,
          "visible": true,
          "properties": [
            {
              "name": "uid",
              "type": "string",
              "value": "sensor_mark"
            },
            {
              "name": "prefab",
              "type": "string",
              "value": "sensor"
            }
          ]
        },
        {
          "id": 8,
          "name": "checkpoint",
          "class": "Entity",
          "x": 742.4000000000001,
          "y": 770.5600000000001,
          "width": 51.2,
          "height": 61.44,
          "rotation": 0,
          "visible": true,
          "properties": [
            {
              "name": "uid",
              "type": "string",
              "value": "checkpoint"
            },
            {
              "name": "prefab",
              "type": "string",
              "value": "checkpoint"
            }
          ]
        },
        {
          "id": 9,
          "name": "bridge",
          "class": "Entity",
          "x": 960.0,
          "y": 832.0,
          "width": 128.0,
          "height": 32.0,
          "rotation": 0,
          "visible": true,
          "properties": [
            {
              "name": "uid",
              "type": "string",
              "value": "bridge"
            },
            {
              "name": "prefab",
              "type": "string",
              "value": "platform"
            },
            {
              "name": "event",
              "type": "string",
              "value": "bridge_contact"
            }
          ]
        },
        {
          "id": 10,
          "name": "pit_spike_0",
          "class": "Entity",
          "x": 960.0,
          "y": 992.0,
          "width": 32.0,
          "height": 32.0,
          "rotation": 0,
          "visible": true,
          "properties": [
            {
              "name": "uid",
              "type": "string",
              "value": "pit_spike_0"
            },
            {
              "name": "prefab",
              "type": "string",
              "value": "spike"
            }
          ]
        },
        {
          "id": 11,
          "name": "pit_spike_1",
          "class": "Entity",
          "x": 992.0,
          "y": 992.0,
          "width": 32.0,
          "height": 32.0,
          "rotation": 0,
          "visible": true,
          "properties": [
            {
              "name": "uid",
              "type": "string",
              "value": "pit_spike_1"
            },
            {
              "name": "prefab",
              "type": "string",
              "value": "spike"
            }
          ]
        },
        {
          "id": 12,
          "name": "pit_spike_2",
          "class": "Entity",
          "x": 1024.0,
          "y": 992.0,
          "width": 32.0,
          "height": 32.0,
          "rotation": 0,
          "visible": true,
          "properties": [
            {
              "name": "uid",
              "type": "string",
              "value": "pit_spike_2"
            },
            {
              "name": "prefab",
              "type": "string",
              "value": "spike"
            }
          ]
        },
        {
          "id": 13,
          "name": "pit_spike_3",
          "class": "Entity",
          "x": 1056.0,
          "y": 992.0,
          "width": 32.0,
          "height": 32.0,
          "rotation": 0,
          "visible": true,
          "properties": [
            {
              "name": "uid",
              "type": "string",
              "value": "pit_spike_3"
            },
            {
              "name": "prefab",
              "type": "string",
              "value": "spike"
            }
          ]
        },
        {
          "id": 14,
          "name": "spike_01",
          "class": "Entity",
          "x": 1392.0,
          "y": 800.0,
          "width": 32.0,
          "height": 32.0,
          "rotation": 0,
          "visible": true,
          "properties": [
            {
              "name": "uid",
              "type": "string",
              "value": "spike_01"
            },
            {
              "name": "prefab",
              "type": "string",
              "value": "spike"
            }
          ]
        },
        {
          "id": 15,
          "name": "spike_02",
          "class": "Entity",
          "x": 1424.0,
          "y": 800.0,
          "width": 32.0,
          "height": 32.0,
          "rotation": 0,
          "visible": true,
          "properties": [
            {
              "name": "uid",
              "type": "string",
              "value": "spike_02"
            },
            {
              "name": "prefab",
              "type": "string",
              "value": "spike"
            }
          ]
        },
        {
          "id": 16,
          "name": "1 FALLING APPLE",
          "class": "Label",
          "x": 256.0,
          "y": 441.6,
          "width": 0,
          "height": 0,
          "point": true,
          "rotation": 0,
          "visible": true,
          "properties": [
            {
              "name": "text",
              "type": "string",
              "value": "1 FALLING APPLE"
            },
            {
              "name": "textScale",
              "type": "float",
              "value": 0.3
            }
          ]
        },
        {
          "id": 17,
          "name": "SAVE",
          "class": "Label",
          "x": 704.0,
          "y": 672.0,
          "width": 0,
          "height": 0,
          "point": true,
          "rotation": 0,
          "visible": true,
          "properties": [
            {
              "name": "text",
              "type": "string",
              "value": "SAVE"
            },
            {
              "name": "textScale",
              "type": "float",
              "value": 0.3
            }
          ]
        },
        {
          "id": 18,
          "name": "2 DELAYED BRIDGE",
          "class": "Label",
          "x": 921.6,
          "y": 441.6,
          "width": 0,
          "height": 0,
          "point": true,
          "rotation": 0,
          "visible": true,
          "properties": [
            {
              "name": "text",
              "type": "string",
              "value": "2 DELAYED BRIDGE"
            },
            {
              "name": "textScale",
              "type": "float",
              "value": 0.3
            }
          ]
        },
        {
          "id": 19,
          "name": "3 SPIKES",
          "class": "Label",
          "x": 1318.4,
          "y": 646.4000000000001,
          "width": 0,
          "height": 0,
          "point": true,
          "rotation": 0,
          "visible": true,
          "properties": [
            {
              "name": "text",
              "type": "string",
              "value": "3 SPIKES"
            },
            {
              "name": "textScale",
              "type": "float",
              "value": 0.3
            }
          ]
        }
      ]
    }
  ]
}
